icons/themes/default/erase.svg

<svg viewBox="0 0 16 16" fill="none" xmlns="http://www.w3.org/2000/svg">
<path fill-rule="evenodd" clip-rule="evenodd" d="M9.57013 2.34094C9.35014 2.34094 9.13915 2.42828 8.98352 2.58376L6.11756 5.44971L6.4728 5.80427L9.57013 2.34094ZM10.6074 9.93097L13.4669 7.0762L13.4683 7.07478C13.5462 6.9976 13.6081 6.90575 13.6503 6.80452C13.6925 6.7033 13.7142 6.59471 13.7142 6.48504C13.7142 6.37536 13.6925 6.26678 13.6503 6.16555C13.6081 6.06433 13.5462 5.97248 13.4683 5.8953L13.4666 5.89359L10.1567 2.58376L10.1566 2.58359C9.99595 2.42318 9.81758 2.34094 9.57013 2.34094L6.47288 5.80434L10.6074 9.93097ZM11.0038 10.9483L14.172 7.7853L14.1727 7.78453C14.3442 7.61454 14.4803 7.41229 14.5732 7.18945C14.6663 6.96626 14.7142 6.72685 14.7142 6.48504C14.7142 6.24323 14.6663 6.00381 14.5732 5.78063C14.4803 5.55787 14.3443 5.35569 14.1729 5.18573L14.172 5.18478L10.8637 1.87649L10.8635 1.87632C10.5254 1.53854 10.0966 1.34094 9.57013 1.34094C9.08509 1.34094 8.61989 1.5335 8.27675 1.87632L8.27658 1.87649L5.06037 5.09269C5.05897 5.09406 5.05758 5.09544 5.0562 5.09682C5.05505 5.09798 5.05391 5.09913 5.05277 5.10029L1.84658 8.30649L1.84641 8.30665C1.5036 8.6498 1.31104 9.115 1.31104 9.60004C1.31104 10.0851 1.5036 10.5503 1.84641 10.8934L1.84658 10.8936L4.87658 13.9236C4.97035 14.0174 5.09752 14.07 5.23013 14.07H7.67013C7.69021 14.07 7.71016 14.0688 7.72988 14.0665C7.74963 14.0688 7.76972 14.07 7.7901 14.07H14.2401C14.5162 14.07 14.7401 13.8462 14.7401 13.57C14.7401 13.2939 14.5162 13.07 14.2401 13.07H8.87862L10.9177 11.0343C10.9337 11.0217 10.9492 11.008 10.964 10.9932C10.9783 10.9789 10.9916 10.9639 11.0038 10.9483ZM9.89976 10.6375L5.80527 6.55087L2.55385 10.1867L5.43724 13.07H7.46326L9.89976 10.6375ZM5.80518 6.55078L5.41046 6.15682L2.55385 9.01342C2.39837 9.16905 2.31104 9.38005 2.31104 9.60004C2.31104 9.81995 2.39831 10.0309 2.55368 10.1865L5.80518 6.55078Z" fill="currentColor"/>
</svg>

<svg xmlns="http://www.w3.org/2000/svg" fill="none" viewBox="0 0 16 16">
  <path fill="currentColor" fill-rule="evenodd" d="M9.57 2.34a.83.83 0 0 0-.586.244L6.118 5.45l.355.354L9.57 2.341Zm1.037 7.591 2.86-2.855.001-.001a.83.83 0 0 0 0-1.18l-.001-.001-3.31-3.31a.774.774 0 0 0-.587-.243L6.473 5.804l4.134 4.127Zm.397 1.017 3.168-3.163a1.829 1.829 0 0 0 0-2.6l-3.308-3.309a1.771 1.771 0 0 0-1.294-.535c-.485 0-.95.193-1.293.535L5.06 5.093a.542.542 0 0 0-.007.007L1.847 8.306a1.83 1.83 0 0 0 0 2.587l3.03 3.03a.5.5 0 0 0 .353.147h2.44c.02 0 .04-.001.06-.004a.52.52 0 0 0 .06.004h6.45a.5.5 0 1 0 0-1H8.88l2.039-2.036a.524.524 0 0 0 .086-.086Zm-1.104-.31L5.805 6.55l-3.251 3.636 2.883 2.883h2.026L9.9 10.637ZM5.805 6.55l-.395-.394-2.856 2.856a.83.83 0 0 0 0 1.174L5.805 6.55Z" clip-rule="evenodd"/>
</svg>
